assets/icons/star.svg

<?xml version="1.0" encoding="UTF-8"?>
<svg width="12px" height="12px" viewBox="0 0 12 12" version="1.1" xmlns="http://www.w3.org/2000/svg" xmlns:xlink="http://www.w3.org/1999/xlink">
    <!-- Generator: Sketch 64 (93537) - https://sketch.com -->
    <title>star</title>
    <desc>Created with Sketch.</desc>
    <g id="Page-1" stroke="none" stroke-width="1" fill="none" fill-rule="evenodd">
        <g id="Daxil-ol---Qeydiyyat" transform="translate(-1172.000000, -155.000000)" fill="#FFFFFF" fill-rule="nonzero">
            <g id="HEADER">
                <g id="star" transform="translate(1172.000000, 155.000000)">
                    <path d="M11.9681824,4.34785488 C11.8773618,4.0681603 11.6066394,3.87599042 11.2255955,3.82060082 L8.11984102,3.36924421 L6.73088954,0.555086218 C6.56050928,0.20974807 6.29408988,0.0117187919 6.00002145,0.0117187919 C5.70595301,0.0117187919 5.43953361,0.20974807 5.2690618,0.555086218 L3.88029342,3.36924421 L0.774355783,3.82060082 C0.393311953,3.87599042 0.122589555,4.0681603 0.0317689182,4.34785488 C-0.0590517189,4.62754949 0.0469667147,4.94212581 0.322724536,5.21083405 L2.57016909,7.40142417 L2.03952755,10.4947275 C1.97168673,10.8903282 2.08731826,11.1274507 2.19626639,11.256632 C2.32416601,11.4082439 2.5104765,11.4918318 2.72104854,11.4918318 C2.87961844,11.4918318 3.04816764,11.4454145 3.22211844,11.3539529 L6.00002145,9.8934985 L8.778016,11.3539529 C8.95196682,11.4454145 9.120516,11.4918318 9.27899435,11.4918318 L9.2790859,11.4918318 C9.48965794,11.4918318 9.67605997,11.4082439 9.80386805,11.256632 C9.91281618,11.1274507 10.0284477,10.8903282 9.96051534,10.4947275 L9.43005689,7.40142417 L11.6773184,5.2109256 C11.9530762,4.94212581 12.0590946,4.62754949 11.9681824,4.34785488 L11.9681824,4.34785488 Z M11.1865939,4.70738376 L8.80694677,7.02697213 C8.72409123,7.10772194 8.68627982,7.22417744 8.70587219,7.33816099 L9.2675502,10.6136549 C9.28393821,10.7089616 9.27688863,10.7630695 9.27038835,10.7883381 C9.24530283,10.7866902 9.19146963,10.7769855 9.10522663,10.7316668 L6.16362677,9.18515247 C6.11235706,9.15823586 6.05623504,9.14477755 6.00002145,9.14477755 C5.94380785,9.14477755 5.88759429,9.15823586 5.83641612,9.18515247 L2.89499936,10.7315752 C2.80875638,10.776894 2.75483161,10.7866902 2.72974608,10.7883381 C2.72333736,10.7630695 2.71619623,10.7089616 2.73258424,10.6136549 L3.29444537,7.33825254 C3.31394617,7.22417744 3.27613476,7.10772194 3.19327924,7.02706368 L0.813540517,4.70738376 C0.744326379,4.63990916 0.718233762,4.59202691 0.70852915,4.56776535 C0.730593432,4.55384928 0.77984899,4.5304117 0.875521934,4.51649564 L4.16438257,4.03858865 C4.27891543,4.02192598 4.37788429,3.94996529 4.42906246,3.84623568 L5.89967929,0.866275081 C5.94252612,0.779574325 5.97997132,0.740023403 6.00011299,0.723269187 C6.02016312,0.740023403 6.05769989,0.779574325 6.10045515,0.866275081 L7.57116353,3.84623568 C7.62243324,3.94996529 7.7214021,4.02192598 7.83593498,4.03858865 L11.124521,4.51649564 C11.2202855,4.5304117 11.2694495,4.55384928 11.2915137,4.56776535 C11.2818091,4.59193536 11.2558081,4.63990916 11.1865939,4.70738376 Z" id="Shape"></path>
                </g>
            </g>
        </g>
    </g>
</svg>

<svg width="12" height="12" xmlns="http://www.w3.org/2000/svg"><path d="M11.968 4.348c-.09-.28-.361-.472-.742-.527L8.12 3.369 6.73.555C6.56.21 6.295.012 6 .012s-.56.198-.73.543L3.88 3.37l-3.106.452c-.38.055-.651.247-.742.527-.091.28.015.594.29.863L2.57 7.4l-.53 3.094c-.068.395.047.632.156.762a.672.672 0 00.525.235c.159 0 .327-.047.501-.138L6 9.894l2.778 1.46c.174.091.343.138.501.138.21 0 .397-.084.525-.235.109-.13.224-.367.157-.762L9.43 7.4l2.246-2.19c.276-.269.382-.583.291-.863zm-.781.36l-2.38 2.319a.352.352 0 00-.101.311l.562 3.276a.43.43 0 01.002.174.433.433 0 01-.165-.056L6.164 9.185a.352.352 0 00-.328 0l-2.941 1.547a.434.434 0 01-.165.056.432.432 0 01.003-.174l.561-3.276a.352.352 0 00-.1-.31l-2.38-2.32a.433.433 0 01-.105-.14.433.433 0 01.167-.052l3.288-.477a.352.352 0 00.265-.193L5.9.866A.433.433 0 016 .723c.02.017.058.057.1.143l1.471 2.98c.051.104.15.176.265.193l3.289.477a.432.432 0 01.167.052.433.433 0 01-.105.14z" fill="#FFF" fill-rule="nonzero"/></svg>
